pieces/kosal/qw.svg

<svg xmlns="http://www.w3.org/2000/svg" viewBox="0 0 81 81"><style>.st0{fill:none}.st1{fill:#fff}.st2{fill:#cfcecf}.st3{fill:#231f20}</style><path class="st0" d="M0 0h81v81H0z"/><circle class="st1" cx="21.9" cy="16.5" r="5.2"/><path class="st1" d="M59.1 21.8c2.9 0 5.2-2.3 5.2-5.2s-2.3-5.2-5.2-5.2-5.2 2.3-5.2 5.2 2.3 5.2 5.2 5.2z"/><path class="st1" d="M72.1 26.4c-2.9 0-5.2 2.3-5.2 5.2 0 1.4.6 2.8 1.5 3.7L55.2 50.5l3.3-28.7-2.1-.6-9.8 16.9-5.1-21.7h-2.2l-5.1 21.7-9.8-16.9-2.1.6 3.3 28.7-13-15.2c.9-.9 1.5-2.3 1.5-3.7 0-2.9-2.3-5.2-5.2-5.2s-5.2 2.3-5.2 5.2 2.3 5.2 5.2 5.2c.5 0 1-.1 1.5-.2L19.5 71h42.1l9.1-34.4c.5.1 1 .2 1.5.2 2.9 0 5.2-2.3 5.2-5.2s-2.4-5.2-5.3-5.2z"/><circle class="st1" cx="40.5" cy="11.3" r="5.2"/><path class="st2" d="M41.4 20.3l5.3 17.9-5.3 7.3zM27.1 53.6l-3.5 6.8-9.7-22.1zM34 50.5l-9.2-27.7 15.7 28.1zM48.2 50.5l9.3-24.7-3.6 27.8zM52.9 70.4l15.6-33.7 1.5.3-9.3 33.4zM73.3 36.7c3.4-.9 3.9-3.4 4-6.7 0-.6-.9-1.8-1.3-1.8-.4.1-.8.1-1.2.3.3 2.5-1.3 5-3.8 5.7-1.1.3-2.1.2-3.1-.1-.6 1 3.9 3 5.4 2.6zM60 21.3c3.4-.9 3.9-3.4 4-6.7 0-.6-.9-1.8-1.3-1.8-.4.1-.8.1-1.2.3.3 2.5-1.3 5-3.8 5.7-1.1.3-2.1.2-3.1-.1-.6 1 3.9 3 5.4 2.6zM10.1 36.7c3.4-.9 3.9-3.4 4-6.7 0-.6-.9-1.8-1.3-1.8-.4.1-.8.1-1.2.3.3 2.5-1.3 5-3.8 5.7-1.1.3-2.1.2-3.1-.1-.6 1 3.9 3 5.4 2.6zM23.1 21.3c3.4-.9 3.9-3.4 4-6.7 0-.6-.9-1.8-1.3-1.8-.4.1-.8.1-1.2.3.3 2.5-1.3 5-3.8 5.7-1.1.3-2.1.2-3.1-.1-.6 1 3.9 3 5.4 2.6zM41.6 16.1c3.4-.9 3.9-3.4 4-6.7 0-.6-.9-1.8-1.3-1.8-.4.1-.8.1-1.2.3.3 2.5-1.3 5-3.8 5.7-1.1.3-2.1.2-3.1-.1-.6 1.1 3.9 3 5.4 2.6z"/><path class="st3" d="M40.5 65.7l-3.9-5.9 3.9-5.8 3.9 5.8z"/><circle class="st1" cx="21.9" cy="16.5" r="5.2"/><path class="st1" d="M59.1 21.8c2.9 0 5.2-2.3 5.2-5.2s-2.3-5.2-5.2-5.2-5.2 2.3-5.2 5.2 2.3 5.2 5.2 5.2z"/><path class="st1" d="M72.1 26.4c-2.9 0-5.2 2.3-5.2 5.2 0 1.4.6 2.8 1.5 3.7L55.2 50.5l3.3-28.7-2.1-.6-9.8 16.9-5.1-21.7h-2.2l-5.1 21.7-9.8-16.9-2.1.6 3.3 28.7-13-15.2c.9-.9 1.5-2.3 1.5-3.7 0-2.9-2.3-5.2-5.2-5.2s-5.2 2.3-5.2 5.2 2.3 5.2 5.2 5.2c.5 0 1-.1 1.5-.2L19.5 71h42.1l9.1-34.4c.5.1 1 .2 1.5.2 2.9 0 5.2-2.3 5.2-5.2s-2.4-5.2-5.3-5.2z"/><circle class="st1" cx="40.5" cy="11.3" r="5.2"/><g><path class="st2" d="M41.4 20.3l5.3 17.9-5.3 7.3zM27.1 53.6l-3.5 6.8-9.7-22.1zM34 50.5l-9.2-27.7 15.7 28.1zM48.2 50.5l9.3-24.7-3.6 27.8zM42.1 70.4C62 65.7 68.5 36.7 68.5 36.7l1.5.3-9.3 33.4H42.1z"/></g><path class="st2" d="M73.3 36.7c3.4-.9 3.9-3.4 4-6.7 0-.6-.9-1.8-1.3-1.8-.4.1-.8.1-1.2.3.3 2.5-1.3 5-3.8 5.7-1.1.3-2.1.2-3.1-.1-.6 1 3.9 3 5.4 2.6zM60 21.3c3.4-.9 3.9-3.4 4-6.7 0-.6-.9-1.8-1.3-1.8-.4.1-.8.1-1.2.3.3 2.5-1.3 5-3.8 5.7-1.1.3-2.1.2-3.1-.1-.6 1 3.9 3 5.4 2.6zM10.1 36.7c3.4-.9 3.9-3.4 4-6.7 0-.6-.9-1.8-1.3-1.8-.4.1-.8.1-1.2.3.3 2.5-1.3 5-3.8 5.7-1.1.3-2.1.2-3.1-.1-.6 1 3.9 3 5.4 2.6zM23.1 21.3c3.4-.9 3.9-3.4 4-6.7 0-.6-.9-1.8-1.3-1.8-.4.1-.8.1-1.2.3.3 2.5-1.3 5-3.8 5.7-1.1.3-2.1.2-3.1-.1-.6 1 3.9 3 5.4 2.6zM41.6 16.1c3.4-.9 3.9-3.4 4-6.7 0-.6-.9-1.8-1.3-1.8-.4.1-.8.1-1.2.3.3 2.5-1.3 5-3.8 5.7-1.1.3-2.1.2-3.1-.1-.6 1.1 3.9 3 5.4 2.6z"/><path d="M40.5 65.7l-3.9-5.9 3.9-5.8 3.9 5.8z"/><path d="M72.1 25.1c-3.6 0-6.4 2.9-6.4 6.5 0 1.3.4 2.6 1.1 3.7l-10.5 13 3.4-25.4c3.3-.3 5.9-3.1 5.9-6.4 0-3.6-2.9-6.5-6.5-6.5s-6.5 2.9-6.5 6.5c0 1.9.8 3.7 2.3 5l-7.8 13.4L43 17.3c2.3-1 3.9-3.4 3.9-6 0-3.6-2.9-6.4-6.4-6.4-3.6 0-6.5 2.9-6.5 6.4 0 2.6 1.5 4.9 3.9 6l-4.1 17.6L26 21.5c1.5-1.2 2.3-3.1 2.3-5 0-3.6-2.9-6.5-6.5-6.5s-6.5 2.9-6.5 6.5c0 3.3 2.6 6.1 5.9 6.4l3.4 25.4-10.4-13c.7-1 1.1-2.3 1.1-3.7 0-3.6-2.9-6.5-6.5-6.5S2.4 28 2.4 31.6 5.3 38 8.8 38h.5l9 34v.2h44l9-34.2h.5c3.6 0 6.4-2.9 6.4-6.4.1-3.6-2.6-6.5-6.1-6.5zm-59 6.5c0 2.3-1.9 4.1-4.2 4.1s-4.1-1.8-4.1-4.1 1.9-4.2 4.1-4.2c2.3 0 4.2 1.9 4.2 4.2zm8.8-10.8c-2.3 0-4.1-1.9-4.1-4.2s1.9-4.2 4.1-4.2c2.3 0 4.2 1.9 4.2 4.2 0 2.2-1.9 4.2-4.2 4.2zM55 16.5c0-2.3 1.9-4.2 4.1-4.2 2.3 0 4.2 1.9 4.2 4.2s-1.9 4.2-4.2 4.2c-2.3.1-4.1-1.8-4.1-4.2zM20.4 69.8l-8.6-32.4c.1-.1.2-.1.3-.1s.2-.1.3-.1l15.1 17.3-3.7-31.6h.1L40.3 51l.2.4 16.6-28.7h.1l-3.7 31.6L68.6 37l.6.3-8.6 32.5H20.4zm55.9-38.2c0 2.3-1.9 4.1-4.2 4.1-2.3 0-4.1-1.8-4.1-4.1s1.9-4.2 4.1-4.2c2.3 0 4.2 1.9 4.2 4.2zM40.5 46.3L35.7 38l4.7-20.2h.3L45.3 38l-4.8 8.3zm0-30.8c-2.3 0-4.2-1.9-4.2-4.2s1.9-4.1 4.2-4.1 4.2 1.9 4.2 4.1c.1 2.3-1.9 4.2-4.2 4.2z"/></svg>

<svg width="81" height="81" viewBox="0 0 81 81" fill="none" xmlns="http://www.w3.org/2000/svg">
<path d="M21.9 21.7C24.7719 21.7 27.1 19.3719 27.1 16.5C27.1 13.6281 24.7719 11.3 21.9 11.3C19.0281 11.3 16.7 13.6281 16.7 16.5C16.7 19.3719 19.0281 21.7 21.9 21.7Z" fill="white"/>
<path d="M59.1 21.8C62 21.8 64.3 19.5 64.3 16.6C64.3 13.7 62 11.4 59.1 11.4C56.2 11.4 53.9 13.7 53.9 16.6C53.9 19.5 56.2 21.8 59.1 21.8V21.8Z" fill="white"/>
<path d="M72.1 26.4C69.2 26.4 66.9 28.7 66.9 31.6C66.9 33 67.5 34.4 68.4 35.3L55.2 50.5L58.5 21.8L56.4 21.2L46.6 38.1L41.5 16.4H39.3L34.2 38.1L24.4 21.2L22.3 21.8L25.6 50.5L12.6 35.3C13.5 34.4 14.1 33 14.1 31.6C14.1 28.7 11.8 26.4 8.9 26.4C6 26.4 3.7 28.7 3.7 31.6C3.7 34.5 6 36.8 8.9 36.8C9.4 36.8 9.9 36.7 10.4 36.6L19.5 71H61.6L70.7 36.6C71.2 36.7 71.7 36.8 72.2 36.8C75.1 36.8 77.4 34.5 77.4 31.6C77.4 28.7 75 26.4 72.1 26.4V26.4Z" fill="white"/>
<path d="M40.5 16.5C43.3719 16.5 45.7 14.1719 45.7 11.3C45.7 8.42812 43.3719 6.1 40.5 6.1C37.6281 6.1 35.3 8.42812 35.3 11.3C35.3 14.1719 37.6281 16.5 40.5 16.5Z" fill="white"/>
<path d="M41.4 20.3L46.7 38.2L41.4 45.5V20.3ZM27.1 53.6L23.6 60.4L13.9 38.3L27.1 53.6ZM34 50.5L24.8 22.8L40.5 50.9L34 50.5ZM48.2 50.5L57.5 25.8L53.9 53.6L48.2 50.5ZM52.9 70.4L68.5 36.7L70 37L60.7 70.4H52.9ZM73.3 36.7C76.7 35.8 77.2 33.3 77.3 30C77.3 29.4 76.4 28.2 76 28.2C75.6 28.3 75.2 28.3 74.8 28.5C75.1 31 73.5 33.5 71 34.2C69.9 34.5 68.9 34.4 67.9 34.1C67.3 35.1 71.8 37.1 73.3 36.7V36.7ZM60 21.3C63.4 20.4 63.9 17.9 64 14.6C64 14 63.1 12.8 62.7 12.8C62.3 12.9 61.9 12.9 61.5 13.1C61.8 15.6 60.2 18.1 57.7 18.8C56.6 19.1 55.6 19 54.6 18.7C54 19.7 58.5 21.7 60 21.3ZM10.1 36.7C13.5 35.8 14 33.3 14.1 30C14.1 29.4 13.2 28.2 12.8 28.2C12.4 28.3 12 28.3 11.6 28.5C11.9 31 10.3 33.5 7.8 34.2C6.7 34.5 5.7 34.4 4.7 34.1C4.1 35.1 8.6 37.1 10.1 36.7ZM23.1 21.3C26.5 20.4 27 17.9 27.1 14.6C27.1 14 26.2 12.8 25.8 12.8C25.4 12.9 25 12.9 24.6 13.1C24.9 15.6 23.3 18.1 20.8 18.8C19.7 19.1 18.7 19 17.7 18.7C17.1 19.7 21.6 21.7 23.1 21.3ZM41.6 16.1C45 15.2 45.5 12.7 45.6 9.4C45.6 8.8 44.7 7.6 44.3 7.6C43.9 7.7 43.5 7.7 43.1 7.9C43.4 10.4 41.8 12.9 39.3 13.6C38.2 13.9 37.2 13.8 36.2 13.5C35.6 14.6 40.1 16.5 41.6 16.1Z" fill="#CFCECF"/>
<path d="M40.5 65.7L36.6 59.8L40.5 54L44.4 59.8L40.5 65.7Z" fill="#231F20"/>
<path d="M21.9 21.7C24.7719 21.7 27.1 19.3719 27.1 16.5C27.1 13.6281 24.7719 11.3 21.9 11.3C19.0281 11.3 16.7 13.6281 16.7 16.5C16.7 19.3719 19.0281 21.7 21.9 21.7Z" fill="white"/>
<path d="M59.1 21.8C62 21.8 64.3 19.5 64.3 16.6C64.3 13.7 62 11.4 59.1 11.4C56.2 11.4 53.9 13.7 53.9 16.6C53.9 19.5 56.2 21.8 59.1 21.8V21.8Z" fill="white"/>
<path d="M72.1 26.4C69.2 26.4 66.9 28.7 66.9 31.6C66.9 33 67.5 34.4 68.4 35.3L55.2 50.5L58.5 21.8L56.4 21.2L46.6 38.1L41.5 16.4H39.3L34.2 38.1L24.4 21.2L22.3 21.8L25.6 50.5L12.6 35.3C13.5 34.4 14.1 33 14.1 31.6C14.1 28.7 11.8 26.4 8.9 26.4C6 26.4 3.7 28.7 3.7 31.6C3.7 34.5 6 36.8 8.9 36.8C9.4 36.8 9.9 36.7 10.4 36.6L19.5 71H61.6L70.7 36.6C71.2 36.7 71.7 36.8 72.2 36.8C75.1 36.8 77.4 34.5 77.4 31.6C77.4 28.7 75 26.4 72.1 26.4V26.4Z" fill="white"/>
<path d="M40.5 16.5C43.3719 16.5 45.7 14.1719 45.7 11.3C45.7 8.42812 43.3719 6.1 40.5 6.1C37.6281 6.1 35.3 8.42812 35.3 11.3C35.3 14.1719 37.6281 16.5 40.5 16.5Z" fill="white"/>
<path d="M41.4 20.3L46.7 38.2L41.4 45.5V20.3ZM27.1 53.6L23.6 60.4L13.9 38.3L27.1 53.6ZM34 50.5L24.8 22.8L40.5 50.9L34 50.5ZM48.2 50.5L57.5 25.8L53.9 53.6L48.2 50.5ZM42.1 70.4C62 65.7 68.5 36.7 68.5 36.7L70 37L60.7 70.4H42.1Z" fill="#CFCECF"/>
<path d="M73.3 36.7C76.7 35.8 77.2 33.3 77.3 30C77.3 29.4 76.4 28.2 76 28.2C75.6 28.3 75.2 28.3 74.8 28.5C75.1 31 73.5 33.5 71 34.2C69.9 34.5 68.9 34.4 67.9 34.1C67.3 35.1 71.8 37.1 73.3 36.7V36.7ZM60 21.3C63.4 20.4 63.9 17.9 64 14.6C64 14 63.1 12.8 62.7 12.8C62.3 12.9 61.9 12.9 61.5 13.1C61.8 15.6 60.2 18.1 57.7 18.8C56.6 19.1 55.6 19 54.6 18.7C54 19.7 58.5 21.7 60 21.3ZM10.1 36.7C13.5 35.8 14 33.3 14.1 30C14.1 29.4 13.2 28.2 12.8 28.2C12.4 28.3 12 28.3 11.6 28.5C11.9 31 10.3 33.5 7.8 34.2C6.7 34.5 5.7 34.4 4.7 34.1C4.1 35.1 8.6 37.1 10.1 36.7ZM23.1 21.3C26.5 20.4 27 17.9 27.1 14.6C27.1 14 26.2 12.8 25.8 12.8C25.4 12.9 25 12.9 24.6 13.1C24.9 15.6 23.3 18.1 20.8 18.8C19.7 19.1 18.7 19 17.7 18.7C17.1 19.7 21.6 21.7 23.1 21.3ZM41.6 16.1C45 15.2 45.5 12.7 45.6 9.4C45.6 8.8 44.7 7.6 44.3 7.6C43.9 7.7 43.5 7.7 43.1 7.9C43.4 10.4 41.8 12.9 39.3 13.6C38.2 13.9 37.2 13.8 36.2 13.5C35.6 14.6 40.1 16.5 41.6 16.1Z" fill="#CFCECF"/>
<path d="M40.5 65.7L36.6 59.8L40.5 54L44.4 59.8L40.5 65.7Z" fill="black"/>
<path d="M72.1 25.1C68.5 25.1 65.7 28 65.7 31.6C65.7 32.9 66.1 34.2 66.8 35.3L56.3 48.3L59.7 22.9C63 22.6 65.6 19.8 65.6 16.5C65.6 12.9 62.7 10 59.1 10C55.5 10 52.6 12.9 52.6 16.5C52.6 18.4 53.4 20.2 54.9 21.5L47.1 34.9L43 17.3C45.3 16.3 46.9 13.9 46.9 11.3C46.9 7.7 44 4.9 40.5 4.9C36.9 4.9 34 7.8 34 11.3C34 13.9 35.5 16.2 37.9 17.3L33.8 34.9L26 21.5C27.5 20.3 28.3 18.4 28.3 16.5C28.3 12.9 25.4 10 21.8 10C18.2 10 15.3 12.9 15.3 16.5C15.3 19.8 17.9 22.6 21.2 22.9L24.6 48.3L14.2 35.3C14.9 34.3 15.3 33 15.3 31.6C15.3 28 12.4 25.1 8.79999 25.1C5.19999 25.1 2.39999 28 2.39999 31.6C2.39999 35.2 5.29999 38 8.79999 38H9.29999L18.3 72V72.2H62.3L71.3 38H71.8C75.4 38 78.2 35.1 78.2 31.6C78.3 28 75.6 25.1 72.1 25.1V25.1ZM13.1 31.6C13.1 33.9 11.2 35.7 8.89999 35.7C6.59999 35.7 4.79999 33.9 4.79999 31.6C4.79999 29.3 6.69999 27.4 8.89999 27.4C11.2 27.4 13.1 29.3 13.1 31.6ZM21.9 20.8C19.6 20.8 17.8 18.9 17.8 16.6C17.8 14.3 19.7 12.4 21.9 12.4C24.2 12.4 26.1 14.3 26.1 16.6C26.1 18.8 24.2 20.8 21.9 20.8V20.8ZM55 16.5C55 14.2 56.9 12.3 59.1 12.3C61.4 12.3 63.3 14.2 63.3 16.5C63.3 18.8 61.4 20.7 59.1 20.7C56.8 20.8 55 18.9 55 16.5ZM20.4 69.8L11.8 37.4C11.9 37.3 12 37.3 12.1 37.3C12.2 37.3 12.3 37.2 12.4 37.2L27.5 54.5L23.8 22.9H23.9L40.3 51L40.5 51.4L57.1 22.7H57.2L53.5 54.3L68.6 37L69.2 37.3L60.6 69.8H20.4ZM76.3 31.6C76.3 33.9 74.4 35.7 72.1 35.7C69.8 35.7 68 33.9 68 31.6C68 29.3 69.9 27.4 72.1 27.4C74.4 27.4 76.3 29.3 76.3 31.6ZM40.5 46.3L35.7 38L40.4 17.8H40.7L45.3 38L40.5 46.3ZM40.5 15.5C38.2 15.5 36.3 13.6 36.3 11.3C36.3 9 38.2 7.2 40.5 7.2C42.8 7.2 44.7 9.1 44.7 11.3C44.8 13.6 42.8 15.5 40.5 15.5Z" fill="black"/>
</svg>
